X:29
M:C|
L:1/8
K:D
g|fedf edBg|fefg agag|fdgf edBg|f/g/a e>c d2 dg|fedf edBg|
fefg abag|fdgf edBg|afge dedB||

